!!!OTL: Schön ist die Jugend, S.66
!!!id: R0059
**kern
*clefG2
*k[b-e-]
*B-:
{8f
8g
8f
=1
8f
8dd
8dd
8cc
8b-
8g
=2
8f
8b-
8b-}
=3
{8b-
8a
8b-
=4
4cc
8f
8f
8g
8a
=5
4b-}
8r
=6
{8f
8g
8f
=7
8f
8dd
8dd
8cc
8b-
8g
=8
8f
8b-
8b-}
=9
{8b-
8a
8b-
=10
4cc
8f
8f
8g
8a
=11
4b-}
8r
=12
{8f
8g
8f
=13
8.cc
16cc
4cc}
8r
=14
{8ee-
8dd
8cc
=15
8.dd
16dd
4dd}
8r
=16
{8f
8g
8f
=17
8f
8ee-
8dd}
=18
{8cc
4b-
4a
=19
2b-}
8r
=20
{8f
8g
8f
=21
8.cc
16cc
4cc}
8r
=22
{8ee-
8dd
8cc
=23
8.dd
16dd
4dd}
8r
=24
{8ff
8ee-
8dd
=25
8dd
8cc
8ee-}
=26
{8cc
8.b-
16a
8g
8a
=27
2b-}
8r
==
*-
!!!minrhy: 16
!!!meters: 3/4 4/4 ]  ZZ[12
!!!cut: Schön ist die Jugend, S.66
!!!reg: Luxemburg
!!!trd: D'Fraen um Kanddaaf an der aler Zeit, Luxemburg 1929
!!!rhy1: X_X_X_  X_X_X_X_X_X_  X_X_X_   (x2)
!!!rhy2: X_X_X_  X__X_X_X_X_  X__0
!!!key: R0059  16 Bb 3/4 4/4 ]  ZZ[12
!!!mod: HEPTATONIK IONISCH]  AMBITUS[8
!!!kad: 111123312341
!!!akz: -5-5_21_-5-5_21_2_3_-5_11_2_3_3_11_
!!!fot: 'a__b__a__b__c__d__e__f__c__d__g__h__
!!!for: 'a__b__a__b__c__c__aw_d__c__c__aw_dv_
!!!fok: '~a_V__~a_V__/__\__-__\__/__\__Vd_Vd_
!! PHRAS[AUFTAKTIG]
!!!fkt: ??
!! RUDEN, J.M.:
!! PR[30] 2K[6] 2G[13] 3K[7] 3G[3] 4A[4] 4Ü[0] 5A[0] 6K[0] 6G[0]
!! 7K[1] 7G[0] 8A[0] MEHR[0] SI[34] ABS[71] SR[18] SP[15]
!! ST[20] 2k[10] 2g[17] 3k[3] 3g[1] 4d[3] 4ü[0] 5d[3] 6k[0] 6g[0]
!! 7k[0] 7g[0] 8d[0] mehr[0] si[37] dm[-3] sr[27] sp[10]
!! 1F[65] 2F[33] 3F[0] 4F[0] LF[0] 2P[1] 3P[0] 4P[0] TRI[0] DF[3] AB[78]
!! TF[0] U3K[0] U3[0] U4[0] U4Ü[0] U5[7] U6K[0] U6[3] U7K[0] U7[4]
!! N1[21] N2K[0] N2[14] N3K[0] N3[15] N4[19] N4Ü[0] N5[14] N6K[0] N6[3]
!!!n7k: 0] N7[0] O1[0] O2K[0] O2[0] O3K[0] O3[0] HÖ[0
